svg/color/dmr.svg

<?xml version="1.0" encoding="UTF-8" ?>
<!DOCTYPE svg PUBLIC "-//W3C//DTD SVG 1.1//EN" "http://www.w3.org/Graphics/SVG/1.1/DTD/svg11.dtd">
<svg width="250pt" height="250pt" viewBox="0 0 250 250" version="1.1" xmlns="http://www.w3.org/2000/svg">
<g id="#ffffffff">
<path fill="#ffffff" opacity="1.00" d=" M 0.00 0.00 L 250.00 0.00 L 250.00 250.00 L 0.00 250.00 L 0.00 0.00 M 81.71 17.49 C 70.15 21.78 59.79 28.66 50.18 36.27 C 41.45 44.14 33.00 52.71 27.48 63.21 C 29.97 63.69 32.44 64.42 34.98 64.44 C 57.22 62.95 77.79 52.60 95.41 39.47 C 100.51 35.97 104.55 31.25 108.94 26.94 C 114.06 22.03 118.41 16.22 121.08 9.61 C 107.61 9.32 94.22 12.68 81.71 17.49 M 129.19 9.61 C 132.24 17.65 138.26 23.93 143.78 30.32 C 155.43 42.02 169.67 50.93 184.88 57.24 C 196.72 62.27 209.72 64.65 222.57 63.36 C 212.64 45.36 196.22 31.69 178.42 21.84 C 163.06 14.69 146.27 9.31 129.19 9.61 M 120.14 20.07 C 115.20 31.77 112.44 44.33 111.30 56.95 C 111.49 66.87 110.41 76.94 112.67 86.71 C 115.02 98.47 117.63 111.09 125.70 120.40 C 132.64 109.10 136.08 96.15 137.84 83.12 C 138.83 78.14 138.79 73.05 138.73 67.99 C 138.64 62.24 139.11 56.42 138.02 50.73 C 135.92 37.26 132.97 23.28 125.02 11.94 C 123.18 14.51 121.39 17.15 120.14 20.07 M 27.03 68.30 C 32.17 80.71 42.17 90.25 52.47 98.49 C 64.56 106.93 77.28 114.87 91.43 119.35 C 100.75 121.67 110.22 124.39 119.94 123.30 C 118.59 115.53 112.81 109.79 108.05 103.91 C 98.09 93.75 86.06 85.84 73.34 79.57 C 59.03 72.38 43.10 68.14 27.03 68.30 M 202.85 70.38 C 183.55 74.48 165.77 84.19 150.52 96.54 C 142.30 104.39 133.30 112.39 129.37 123.38 C 158.29 123.02 186.41 110.07 207.03 90.03 C 212.79 83.88 218.50 77.35 221.68 69.43 C 215.40 69.16 209.02 68.95 202.85 70.38 M 9.47 125.00 C 8.93 144.13 13.60 163.34 22.76 180.14 C 28.18 173.35 30.74 164.86 33.25 156.68 C 36.14 143.67 37.95 130.31 37.34 116.96 C 35.88 100.93 33.19 84.03 23.05 70.95 C 12.31 86.66 8.90 106.27 9.47 125.00 M 226.53 71.46 C 219.19 81.85 215.29 94.36 213.88 106.92 C 211.03 123.14 213.13 139.77 216.65 155.70 C 219.14 164.22 221.71 173.08 227.24 180.17 C 231.05 172.84 234.71 165.32 236.50 157.20 C 238.85 147.31 240.92 137.21 240.52 126.99 C 241.07 109.04 238.24 90.43 229.23 74.65 C 228.51 73.47 227.86 72.07 226.53 71.46 M 93.64 130.94 C 77.68 135.40 63.03 143.88 50.08 154.11 C 41.13 161.88 32.60 170.66 27.78 181.66 C 40.60 182.64 53.32 179.63 65.23 175.11 C 74.38 171.53 82.76 166.33 90.95 160.97 C 102.84 152.37 114.35 141.89 120.12 128.10 C 111.20 126.73 102.30 129.03 93.64 130.94 M 129.76 128.29 C 134.59 140.42 144.56 149.45 154.44 157.52 C 167.87 167.34 182.74 175.61 198.95 179.76 C 206.50 182.05 214.44 181.85 222.24 181.68 C 219.68 175.69 216.24 170.01 211.58 165.41 C 205.11 158.55 198.23 152.01 190.23 146.95 C 175.93 137.53 159.76 130.59 142.72 128.24 C 138.44 127.38 134.04 127.56 129.76 128.29 M 112.21 167.69 C 110.76 174.03 111.40 180.56 111.27 186.99 C 110.97 193.25 111.65 199.46 112.79 205.60 C 115.04 217.04 117.82 229.04 125.42 238.23 C 136.23 221.38 139.24 200.68 138.74 181.01 C 139.07 172.99 137.29 165.12 135.87 157.29 C 134.05 147.52 130.57 137.99 125.00 129.73 C 117.45 140.98 114.44 154.52 112.21 167.69 M 27.13 186.43 C 32.29 197.37 40.62 206.38 49.71 214.20 C 59.48 221.47 69.74 228.27 80.97 233.08 C 93.46 238.41 107.10 242.09 120.76 240.32 C 119.48 237.10 117.89 234.00 115.76 231.25 C 105.15 217.01 90.73 205.81 74.74 198.19 C 60.16 190.52 43.77 185.27 27.13 186.43 M 165.27 203.32 C 150.49 212.42 137.36 224.80 129.15 240.23 C 132.04 241.26 135.10 241.55 138.11 240.93 C 153.05 239.95 167.21 234.23 180.32 227.32 C 192.84 220.02 205.70 212.29 214.54 200.51 C 218.00 196.48 220.45 191.68 221.85 186.56 C 218.57 186.44 215.28 186.29 212.01 186.54 C 195.45 188.67 179.45 194.53 165.27 203.32 Z" />
</g>
<g id="#50e3c2ff">
<path fill="#50e3c2" opacity="1.00" d=" M 81.71 17.49 C 94.22 12.68 107.61 9.32 121.08 9.61 C 118.41 16.22 114.06 22.03 108.94 26.94 C 104.55 31.25 100.51 35.97 95.41 39.47 C 77.79 52.60 57.22 62.95 34.98 64.44 C 32.44 64.42 29.97 63.69 27.48 63.21 C 33.00 52.71 41.45 44.14 50.18 36.27 C 59.79 28.66 70.15 21.78 81.71 17.49 Z" />
<path fill="#50e3c2" opacity="1.00" d=" M 129.19 9.61 C 146.27 9.31 163.06 14.69 178.42 21.84 C 196.22 31.69 212.64 45.36 222.57 63.36 C 209.72 64.65 196.72 62.27 184.88 57.24 C 169.67 50.93 155.43 42.02 143.78 30.32 C 138.26 23.93 132.24 17.65 129.19 9.61 Z" />
<path fill="#50e3c2" opacity="1.00" d=" M 120.14 20.07 C 121.39 17.15 123.18 14.51 125.02 11.94 C 132.97 23.28 135.92 37.26 138.02 50.73 C 139.11 56.42 138.64 62.24 138.73 67.99 C 138.79 73.05 138.83 78.14 137.84 83.12 C 136.08 96.15 132.64 109.10 125.70 120.40 C 117.63 111.09 115.02 98.47 112.67 86.71 C 110.41 76.94 111.49 66.87 111.30 56.95 C 112.44 44.33 115.20 31.77 120.14 20.07 Z" />
<path fill="#50e3c2" opacity="1.00" d=" M 27.03 68.30 C 43.10 68.14 59.03 72.38 73.34 79.57 C 86.06 85.84 98.09 93.75 108.05 103.91 C 112.81 109.79 118.59 115.53 119.94 123.30 C 110.22 124.39 100.75 121.67 91.43 119.35 C 77.28 114.87 64.56 106.93 52.47 98.49 C 42.17 90.25 32.17 80.71 27.03 68.30 Z" />
<path fill="#50e3c2" opacity="1.00" d=" M 202.85 70.38 C 209.02 68.95 215.40 69.16 221.68 69.43 C 218.50 77.35 212.79 83.88 207.03 90.03 C 186.41 110.07 158.29 123.02 129.37 123.38 C 133.30 112.39 142.30 104.39 150.52 96.54 C 165.77 84.19 183.55 74.48 202.85 70.38 Z" />
<path fill="#50e3c2" opacity="1.00" d=" M 9.47 125.00 C 8.90 106.27 12.31 86.66 23.05 70.95 C 33.19 84.03 35.88 100.93 37.34 116.96 C 37.95 130.31 36.14 143.67 33.25 156.68 C 30.74 164.86 28.18 173.35 22.76 180.14 C 13.60 163.34 8.93 144.13 9.47 125.00 Z" />
<path fill="#50e3c2" opacity="1.00" d=" M 226.53 71.46 C 227.86 72.07 228.51 73.47 229.23 74.65 C 238.24 90.43 241.07 109.04 240.52 126.99 C 240.92 137.21 238.85 147.31 236.50 157.20 C 234.71 165.32 231.05 172.84 227.24 180.17 C 221.71 173.08 219.14 164.22 216.65 155.70 C 213.13 139.77 211.03 123.14 213.88 106.92 C 215.29 94.36 219.19 81.85 226.53 71.46 Z" />
<path fill="#50e3c2" opacity="1.00" d=" M 93.64 130.94 C 102.30 129.03 111.20 126.73 120.12 128.10 C 114.35 141.89 102.84 152.37 90.95 160.97 C 82.76 166.33 74.38 171.53 65.23 175.11 C 53.32 179.63 40.60 182.64 27.78 181.66 C 32.60 170.66 41.13 161.88 50.08 154.11 C 63.03 143.88 77.68 135.40 93.64 130.94 Z" />
<path fill="#50e3c2" opacity="1.00" d=" M 129.76 128.29 C 134.04 127.56 138.44 127.38 142.72 128.24 C 159.76 130.59 175.93 137.53 190.23 146.95 C 198.23 152.01 205.11 158.55 211.58 165.41 C 216.24 170.01 219.68 175.69 222.24 181.68 C 214.44 181.85 206.50 182.05 198.95 179.76 C 182.74 175.61 167.87 167.34 154.44 157.52 C 144.56 149.45 134.59 140.42 129.76 128.29 Z" />
<path fill="#50e3c2" opacity="1.00" d=" M 112.21 167.69 C 114.44 154.52 117.45 140.98 125.00 129.73 C 130.57 137.99 134.05 147.52 135.87 157.29 C 137.29 165.12 139.07 172.99 138.74 181.01 C 139.24 200.68 136.23 221.38 125.42 238.23 C 117.82 229.04 115.04 217.04 112.79 205.60 C 111.65 199.46 110.97 193.25 111.27 186.99 C 111.40 180.56 110.76 174.03 112.21 167.69 Z" />
<path fill="#50e3c2" opacity="1.00" d=" M 27.13 186.43 C 43.77 185.27 60.16 190.52 74.74 198.19 C 90.73 205.81 105.15 217.01 115.76 231.25 C 117.89 234.00 119.48 237.10 120.76 240.32 C 107.10 242.09 93.46 238.41 80.97 233.08 C 69.74 228.27 59.48 221.47 49.71 214.20 C 40.62 206.38 32.29 197.37 27.13 186.43 Z" />
<path fill="#50e3c2" opacity="1.00" d=" M 165.27 203.32 C 179.45 194.53 195.45 188.67 212.01 186.54 C 215.28 186.29 218.57 186.44 221.85 186.56 C 220.45 191.68 218.00 196.48 214.54 200.51 C 205.70 212.29 192.84 220.02 180.32 227.32 C 167.21 234.23 153.05 239.95 138.11 240.93 C 135.10 241.55 132.04 241.26 129.15 240.23 C 137.36 224.80 150.49 212.42 165.27 203.32 Z" />
</g>
</svg>

<?xml version="1.0" encoding="utf-8"?>
<!-- Generator: Adobe Illustrator 26.0.3, SVG Export Plug-In . SVG Version: 6.00 Build 0)  -->
<svg version="1.1" id="Layer_1" xmlns="http://www.w3.org/2000/svg" xmlns:xlink="http://www.w3.org/1999/xlink" x="0px" y="0px"
	 viewBox="0 0 250 250" style="enable-background:new 0 0 250 250;" xml:space="preserve">
<style type="text/css">
	.st0{fill:#50E3C2;}
</style>
<g id="_x23_50e3c2ff">
	<path class="st0" d="M81.7,17.5c12.5-4.8,25.9-8.2,39.4-7.9c-2.7,6.6-7,12.4-12.1,17.3c-4.4,4.3-8.4,9-13.5,12.5
		C77.8,52.6,57.2,63,35,64.4c-2.5,0-5-0.8-7.5-1.2c5.5-10.5,14-19.1,22.7-26.9C59.8,28.7,70.2,21.8,81.7,17.5z"/>
	<path class="st0" d="M129.2,9.6c17.1-0.3,33.9,5.1,49.2,12.2c17.8,9.9,34.2,23.5,44.2,41.5c-12.9,1.3-25.9-1.1-37.7-6.1
		c-15.2-6.3-29.5-15.2-41.1-26.9C138.3,23.9,132.2,17.6,129.2,9.6z"/>
	<path class="st0" d="M120.1,20.1c1.2-2.9,3-5.6,4.9-8.1c8,11.3,10.9,25.3,13,38.8c1.1,5.7,0.6,11.5,0.7,17.3
		c0.1,5.1,0.1,10.2-0.9,15.1c-1.8,13-5.2,26-12.1,37.3c-8.1-9.3-10.7-21.9-13-33.7c-2.3-9.8-1.2-19.8-1.4-29.8
		C112.4,44.3,115.2,31.8,120.1,20.1z"/>
	<path class="st0" d="M27,68.3c16.1-0.2,32,4.1,46.3,11.3c12.7,6.3,24.8,14.2,34.7,24.3c4.8,5.9,10.5,11.6,11.9,19.4
		c-9.7,1.1-19.2-1.6-28.5-4c-14.2-4.5-26.9-12.4-39-20.9C42.2,90.2,32.2,80.7,27,68.3z"/>
	<path class="st0" d="M202.9,70.4c6.2-1.4,12.5-1.2,18.8-0.9c-3.2,7.9-8.9,14.4-14.6,20.6c-20.6,20-48.7,33-77.7,33.3
		c3.9-11,12.9-19,21.2-26.8C165.8,84.2,183.6,74.5,202.9,70.4z"/>
	<path class="st0" d="M9.5,125C8.9,106.3,12.3,86.7,23,70.9c10.1,13.1,12.8,30,14.3,46c0.6,13.3-1.2,26.7-4.1,39.7
		c-2.5,8.2-5.1,16.7-10.5,23.5C13.6,163.3,8.9,144.1,9.5,125z"/>
	<path class="st0" d="M226.5,71.5c1.3,0.6,2,2,2.7,3.2c9,15.8,11.8,34.4,11.3,52.3c0.4,10.2-1.7,20.3-4,30.2
		c-1.8,8.1-5.4,15.6-9.3,23c-5.5-7.1-8.1-15.9-10.6-24.5c-3.5-15.9-5.6-32.6-2.8-48.8C215.3,94.4,219.2,81.8,226.5,71.5z"/>
	<path class="st0" d="M93.6,130.9c8.7-1.9,17.6-4.2,26.5-2.8c-5.8,13.8-17.3,24.3-29.2,32.9c-8.2,5.4-16.6,10.6-25.7,14.1
		c-11.9,4.5-24.6,7.5-37.5,6.6c4.8-11,13.4-19.8,22.3-27.6C63,143.9,77.7,135.4,93.6,130.9z"/>
	<path class="st0" d="M129.8,128.3c4.3-0.7,8.7-0.9,13,0c17,2.3,33.2,9.3,47.5,18.7c8,5.1,14.9,11.6,21.4,18.5
		c4.7,4.6,8.1,10.3,10.7,16.3c-7.8,0.2-15.7,0.4-23.3-1.9c-16.2-4.1-31.1-12.4-44.5-22.2C144.6,149.4,134.6,140.4,129.8,128.3z"/>
	<path class="st0" d="M112.2,167.7c2.2-13.2,5.2-26.7,12.8-38c5.6,8.3,9.1,17.8,10.9,27.6c1.4,7.8,3.2,15.7,2.9,23.7
		c0.5,19.7-2.5,40.4-13.3,57.2c-7.6-9.2-10.4-21.2-12.6-32.6c-1.1-6.1-1.8-12.4-1.5-18.6C111.4,180.6,110.8,174,112.2,167.7z"/>
	<path class="st0" d="M27.1,186.4c16.6-1.2,33,4.1,47.6,11.8c16,7.6,30.4,18.8,41,33.1c2.1,2.8,3.7,5.9,5,9.1
		c-13.7,1.8-27.3-1.9-39.8-7.2c-11.2-4.8-21.5-11.6-31.3-18.9C40.6,206.4,32.3,197.4,27.1,186.4z"/>
	<path class="st0" d="M165.3,203.3c14.2-8.8,30.2-14.7,46.7-16.8c3.3-0.2,6.6-0.1,9.8,0c-1.4,5.1-3.9,9.9-7.3,13.9
		c-8.8,11.8-21.7,19.5-34.2,26.8c-13.1,6.9-27.3,12.6-42.2,13.6c-3,0.6-6.1,0.3-9-0.7C137.4,224.8,150.5,212.4,165.3,203.3z"/>
</g>
</svg>
